img/tasty.svg

<svg width="64" height="64" viewBox="0 0 64 64" fill="none" xmlns="http://www.w3.org/2000/svg">
<path d="M32 0C14.4314 0 0 14.4314 0 32C0 49.5686 14.4314 64 32 64C49.5686 64 64 49.5686 64 32C64 14.4314 49.5686 0 32 0ZM32 61.4902C15.6863 61.4902 2.5098 48.3137 2.5098 32C2.5098 15.6863 15.6863 2.5098 32 2.5098C48.3137 2.5098 61.4902 15.6863 61.4902 32C61.4902 48.3137 48.3137 61.4902 32 61.4902Z" fill="#292929"/>
<path d="M32 48.6275C21.0196 48.6275 14.4314 38.902 14.4314 38.902L12.2353 40.4706C21.0196 51.7647 32 51.451 32 51.451C32 51.451 42.9804 52.0785 51.7647 40.4706L49.5686 38.902C49.5686 38.902 42.9804 48.6275 32 48.6275Z" fill="#292929"/>
<path d="M21.3333 35.451C28.8627 32 30.1176 27.6078 30.1176 25.4118C30.1176 22.902 28.549 20.0784 25.7255 20.0784C22.5882 20.0784 21.3333 21.6471 21.3333 21.6471C21.3333 21.6471 20.0784 20.0784 16.9412 20.0784C14.1176 20.0784 12.549 23.2157 12.549 25.4118C12.549 27.6078 13.8039 32 21.3333 35.451ZM21.3333 24.7843C22.902 22.2745 27.2941 21.9608 27.6078 25.098C27.6078 29.4902 21.3333 32.6275 21.3333 32.6275C21.3333 32.6275 15.0588 29.4902 15.0588 25.098C15.3725 21.9608 19.7647 22.2745 21.3333 24.7843Z" fill="#292929"/>
<path d="M42.6667 35.451C50.1961 32 51.451 27.6078 51.451 25.7255C51.451 23.2157 49.8824 20.3922 47.0588 20.3922C43.9216 20.3922 42.6667 21.9608 42.6667 21.9608C42.6667 21.9608 41.4118 20.3922 38.2745 20.3922C35.451 20.3922 33.8824 23.5294 33.8824 25.7255C33.8824 27.6078 35.1373 32 42.6667 35.451ZM42.6667 24.7843C44.2353 22.2745 48.6274 21.9608 48.9412 25.098C48.9412 29.4902 42.6667 32.6274 42.6667 32.6274C42.6667 32.6274 36.3922 29.4902 36.3922 25.098C36.7059 21.9608 41.098 22.2745 42.6667 24.7843Z" fill="#292929"/>
</svg>

<svg width="64" height="64" fill="none" xmlns="http://www.w3.org/2000/svg"><path d="M32 0C14.431 0 0 14.431 0 32c0 17.569 14.431 32 32 32 17.569 0 32-14.431 32-32C64 14.431 49.569 0 32 0zm0 61.49C15.686 61.49 2.51 48.314 2.51 32S15.686 2.51 32 2.51 61.49 15.686 61.49 32 48.314 61.49 32 61.49z" fill="#292929"/><path d="M32 48.627c-10.98 0-17.569-9.725-17.569-9.725l-2.196 1.569C21.02 51.765 32 51.45 32 51.45s10.98.627 19.765-10.98l-2.196-1.569S42.98 48.627 32 48.627zM21.333 35.451c7.53-3.451 8.785-7.843 8.785-10.04 0-2.509-1.569-5.333-4.392-5.333-3.138 0-4.393 1.57-4.393 1.57s-1.255-1.57-4.392-1.57c-2.823 0-4.392 3.138-4.392 5.334 0 2.196 1.255 6.588 8.784 10.039zm0-10.667c1.569-2.51 5.961-2.823 6.275.314 0 4.392-6.275 7.53-6.275 7.53s-6.274-3.138-6.274-7.53c.314-3.137 4.706-2.823 6.274-.314zm21.334 10.667c7.53-3.451 8.784-7.843 8.784-9.726 0-2.51-1.569-5.333-4.392-5.333-3.137 0-4.392 1.569-4.392 1.569s-1.255-1.569-4.392-1.569c-2.824 0-4.393 3.137-4.393 5.334 0 1.882 1.255 6.274 8.785 9.725zm0-10.667c1.568-2.51 5.96-2.823 6.274.314 0 4.392-6.274 7.53-6.274 7.53s-6.275-3.138-6.275-7.53c.314-3.137 4.706-2.823 6.275-.314z" fill="#292929"/></svg>
